X:1038
T:Believe Me of All These Endearing Young Charms
C:Joe Buchanan's Scottish Tome - Page 629.1
I:629 1
Z:Carl Allison
R:Waltz
L:1/4
M:3/4
K:D
(F/E/) | "D"D>E D | "D7"(D F A) | "G"G (B d) | "G#dim"d2 (c/B/) |
"D"A>G F | "A7"(E D E) | "B7"F3 | "A7"(F2 E) |
"D"D>E D | "D7"(D F A) | "G"G (B d) | "G#dim"d2 (c/B/) |
"D"A d F | "A7"E>D E | "D"D3- | "D"D2 A/G/ |
"D"(F A) d | "D7"d2 A/A/ | "G"(B G) B | "G#dim"d2 (c/B/) |
"D"A>G F | "A7"E D E | "Bm"F3 | "A7"(F2 E) |
"D"D>E D | "D7"D F A | "G"G (B d) | "G#dim"d2 (c/B/) |
"D"A d F | "A7"E D E | "D"D3- | D2 |]

